assets/img/ca-breast/screenpop.svg

<svg height="182" viewBox="0 0 322 182" width="322" xmlns="http://www.w3.org/2000/svg"><g fill="none" fill-rule="evenodd"><g fill="#ccc"><circle cx="10" cy="10" r="10"/><circle cx="130" cy="10" r="10"/><circle cx="70" cy="10" r="10"/><circle cx="190" cy="10" r="10"/><circle cx="250" cy="10" r="10"/><circle cx="40" cy="10" r="10"/><circle cx="160" cy="10" r="10"/><circle cx="100" cy="10" r="10"/><circle cx="220" cy="10" r="10"/></g><circle cx="280" cy="10" fill="#00f" r="10"/><circle cx="10" cy="40" fill="#ccc" r="10"/><circle cx="130" cy="40" fill="#ccc" r="10"/><circle cx="70" cy="40" fill="#ccc" r="10"/><circle cx="190" cy="40" fill="#ccc" r="10"/><circle cx="250" cy="40" fill="#ccc" r="10"/><circle cx="40" cy="40" fill="#ccc" r="10"/><circle cx="160" cy="40" fill="#ccc" r="10"/><circle cx="100" cy="40" fill="#ccc" r="10"/><circle cx="220" cy="40" fill="#ccc" r="10"/><circle cx="280" cy="40" fill="#00f" r="10"/><circle cx="10" cy="100" fill="#ccc" r="10"/><circle cx="130" cy="100" fill="#ccc" r="10"/><circle cx="70" cy="100" fill="#ccc" r="10"/><circle cx="190" cy="100" fill="#ccc" r="10"/><circle cx="250" cy="100" fill="#ccc" r="10"/><circle cx="40" cy="100" fill="#ccc" r="10"/><circle cx="160" cy="100" fill="#ccc" r="10"/><circle cx="100" cy="100" fill="#ccc" r="10"/><circle cx="220" cy="100" fill="#ccc" r="10"/><circle cx="280" cy="100" fill="#00f" r="10"/><circle cx="10" cy="70" fill="#ccc" r="10"/><circle cx="130" cy="70" fill="#ccc" r="10"/><circle cx="70" cy="70" fill="#ccc" r="10"/><circle cx="190" cy="70" fill="#ccc" r="10"/><circle cx="250" cy="70" fill="#ccc" r="10"/><circle cx="40" cy="70" fill="#ccc" r="10"/><circle cx="160" cy="70" fill="#ccc" r="10"/><circle cx="100" cy="70" fill="#ccc" r="10"/><circle cx="220" cy="70" fill="#ccc" r="10"/><circle cx="280" cy="70" fill="#00f" r="10"/><circle cx="10" cy="130" fill="#ccc" r="10"/><circle cx="130" cy="130" fill="#ccc" r="10"/><circle cx="70" cy="130" fill="#ccc" r="10"/><circle cx="190" cy="130" fill="#ccc" r="10"/><circle cx="250" cy="130" fill="#ccc" r="10"/><circle cx="40" cy="130" fill="#ccc" r="10"/><circle cx="160" cy="130" fill="#ccc" r="10"/><circle cx="100" cy="130" fill="#ccc" r="10"/><circle cx="220" cy="130" fill="#ccc" r="10"/><circle cx="280" cy="130" fill="#00f" r="10"/><path d="m1.5 151.5h258.00193" stroke="#ccc" stroke-linecap="round" stroke-linejoin="round" stroke-width="3"/><path d="m270 151h20" stroke="#00f" stroke-linecap="round" stroke-linejoin="round" stroke-width="3"/><path d="m130.5 152.5v10" stroke="#ccc" stroke-linecap="round" stroke-linejoin="round" stroke-width="3"/><path d="m280.5 152.5v10" stroke="#00f" stroke-linecap="round" stroke-linejoin="round" stroke-width="3"/><path d="m110.368 178.36-2.87-7.518h-.126v7.518h-1.372v-9.772h2.016l2.87 7.518h.126v-7.518h1.372v9.772zm7.224.168c-2.128 0-3.43-1.47-3.43-3.78s1.302-3.78 3.43-3.78 3.43 1.47 3.43 3.78-1.302 3.78-3.43 3.78zm0-1.204c1.106 0 1.834-.686 1.834-2.03v-1.092c0-1.344-.728-2.03-1.834-2.03s-1.834.686-1.834 2.03v1.092c0 1.344.728 2.03 1.834 2.03zm5.264 1.036v-1.232h1.918v-4.76h-1.918v-1.232h3.444v1.918h.084c.28-1.008.91-1.918 2.38-1.918h.868v1.456h-1.428c-1.246 0-1.904.826-1.904 1.834v2.702h2.618v1.232zm9.254 0h-1.302v-7.224h1.302v.938h.07c.224-.616.602-1.106 1.386-1.106.756 0 1.176.448 1.288 1.176h.056c.252-.658.686-1.176 1.554-1.176 1.106 0 1.498.812 1.498 2.31v5.082h-1.302v-4.886c0-.994-.224-1.33-.77-1.33-.49 0-.854.322-.854.98v5.236h-1.302v-4.886c0-.994-.21-1.33-.756-1.33-.504 0-.868.322-.868.98zm14.308 0h-.938c-.868 0-1.302-.49-1.386-1.218h-.07c-.28.868-1.036 1.386-2.17 1.386-1.47 0-2.422-.826-2.422-2.184 0-1.4 1.022-2.156 3.164-2.156h1.386v-.56c0-.966-.518-1.47-1.554-1.47-.924 0-1.47.392-1.862.994l-.91-.742c.406-.784 1.386-1.442 2.912-1.442 1.82 0 2.94.91 2.94 2.562v3.626h.91zm-4.13-.952c.98 0 1.694-.49 1.694-1.204v-1.05h-1.358c-1.12 0-1.652.35-1.652.994v.28c0 .644.504.98 1.316.98zm5.754.952v-1.232h2.394v-7.896h-2.394v-1.232h3.92v9.128h2.394v1.232z" fill="#9b9b9b"/><path d="m242.57 178.654c-1.694 0-2.828-.658-3.57-1.638l1.008-.966c.742.882 1.568 1.302 2.618 1.302 1.232 0 1.918-.588 1.918-1.624 0-.84-.434-1.274-1.61-1.47l-1.064-.168c-1.848-.308-2.506-1.414-2.506-2.716 0-1.834 1.288-2.828 3.36-2.828 1.54 0 2.632.532 3.304 1.414l-.98.98c-.532-.658-1.246-1.092-2.324-1.092-1.148 0-1.778.504-1.778 1.456 0 .798.42 1.246 1.624 1.442l1.036.182c1.764.322 2.52 1.33 2.52 2.716 0 1.806-1.26 3.01-3.556 3.01zm9.982-.168v-1.232h-.07c-.308.756-.896 1.4-2.086 1.4-1.456 0-2.436-.994-2.436-2.744v-4.648h1.526v4.424c0 1.148.518 1.722 1.498 1.722.784 0 1.568-.406 1.568-1.246v-4.9h1.526v7.224zm6.916.168c-1.554 0-2.702-.546-3.388-1.386l.938-.84c.63.686 1.4 1.064 2.478 1.064.98 0 1.652-.322 1.652-1.036 0-.616-.49-.784-1.106-.868l-1.148-.182c-1.134-.168-2.408-.574-2.408-2.058 0-1.47 1.232-2.254 3.08-2.254 1.344 0 2.31.42 2.968 1.134l-.854.896c-.378-.434-1.036-.868-2.17-.868-.994 0-1.526.336-1.526.966 0 .616.504.784 1.106.868l1.148.182c1.148.168 2.408.56 2.408 2.044 0 1.456-1.204 2.338-3.178 2.338zm5.292 2.632v-10.024h1.526v1.232h.084c.42-.868 1.12-1.4 2.184-1.4 1.694 0 2.786 1.302 2.786 3.78s-1.092 3.78-2.786 3.78c-1.064 0-1.764-.532-2.184-1.4h-.084v4.032zm3.164-3.878c1.148 0 1.806-.77 1.806-1.946v-1.176c0-1.176-.658-1.946-1.806-1.946-.882 0-1.638.448-1.638 1.33v2.408c0 .882.756 1.33 1.638 1.33zm8.778-7.462c-.77 0-1.05-.364-1.05-.826v-.294c0-.462.28-.826 1.036-.826.77 0 1.05.364 1.05.826v.294c0 .462-.28.826-1.036.826zm-3.234 8.54v-1.232h2.464v-4.76h-2.464v-1.232h3.99v5.992h2.31v1.232zm11.452.168c-2.156 0-3.43-1.47-3.43-3.78s1.288-3.78 3.416-3.78c1.484 0 2.366.7 2.814 1.708l-1.19.644c-.252-.672-.784-1.092-1.624-1.092-1.148 0-1.82.77-1.82 1.918v1.204c0 1.134.658 1.918 1.848 1.918.896 0 1.442-.448 1.778-1.148l1.12.686c-.462 1.008-1.4 1.722-2.912 1.722zm8.582-8.708c-.77 0-1.05-.364-1.05-.826v-.294c0-.462.28-.826 1.036-.826.77 0 1.05.364 1.05.826v.294c0 .462-.28.826-1.036.826zm-3.234 8.54v-1.232h2.464v-4.76h-2.464v-1.232h3.99v5.992h2.31v1.232zm11.186.168c-2.128 0-3.43-1.47-3.43-3.78s1.302-3.78 3.43-3.78 3.43 1.47 3.43 3.78-1.302 3.78-3.43 3.78zm0-1.204c1.106 0 1.834-.686 1.834-2.03v-1.092c0-1.344-.728-2.03-1.834-2.03s-1.834.686-1.834 2.03v1.092c0 1.344.728 2.03 1.834 2.03zm9.898 1.036v-1.232h-.07c-.308.756-.896 1.4-2.086 1.4-1.456 0-2.436-.994-2.436-2.744v-4.648h1.526v4.424c0 1.148.518 1.722 1.498 1.722.784 0 1.568-.406 1.568-1.246v-4.9h1.526v7.224zm6.916.168c-1.554 0-2.702-.546-3.388-1.386l.938-.84c.63.686 1.4 1.064 2.478 1.064.98 0 1.652-.322 1.652-1.036 0-.616-.49-.784-1.106-.868l-1.148-.182c-1.134-.168-2.408-.574-2.408-2.058 0-1.47 1.232-2.254 3.08-2.254 1.344 0 2.31.42 2.968 1.134l-.854.896c-.378-.434-1.036-.868-2.17-.868-.994 0-1.526.336-1.526.966 0 .616.504.784 1.106.868l1.148.182c1.148.168 2.408.56 2.408 2.044 0 1.456-1.204 2.338-3.178 2.338z" fill="#00f"/></g></svg>

<?xml version="1.0" encoding="UTF-8"?>
<svg width="322px" height="182px" viewBox="0 0 322 182" version="1.1" xmlns="http://www.w3.org/2000/svg" xmlns:xlink="http://www.w3.org/1999/xlink">
    <!-- Generator: Sketch 50.2 (55047) - http://www.bohemiancoding.com/sketch -->
    <title>screenpop</title>
    <desc>Created with Sketch.</desc>
    <defs></defs>
    <g id="Page-1" stroke="none" stroke-width="1" fill="none" fill-rule="evenodd">
        <g id="charts" transform="translate(-1134.000000, -200.000000)">
            <g id="screenpop" transform="translate(1134.000000, 200.000000)">
                <circle id="Oval-9" fill="#CCCCCC" cx="10" cy="10" r="10"></circle>
                <circle id="Oval-9-Copy-20" fill="#CCCCCC" cx="130" cy="10" r="10"></circle>
                <circle id="Oval-9-Copy-10" fill="#CCCCCC" cx="70" cy="10" r="10"></circle>
                <circle id="Oval-9-Copy-21" fill="#CCCCCC" cx="190" cy="10" r="10"></circle>
                <circle id="Oval-9-Copy-40" fill="#CCCCCC" cx="250" cy="10" r="10"></circle>
                <circle id="Oval-9-Copy-5" fill="#CCCCCC" cx="40" cy="10" r="10"></circle>
                <circle id="Oval-9-Copy-22" fill="#CCCCCC" cx="160" cy="10" r="10"></circle>
                <circle id="Oval-9-Copy-11" fill="#CCCCCC" cx="100" cy="10" r="10"></circle>
                <circle id="Oval-9-Copy-23" fill="#CCCCCC" cx="220" cy="10" r="10"></circle>
                <circle id="Oval-9-Copy-41" fill="#0000FF" cx="280" cy="10" r="10"></circle>
                <circle id="Oval-9-Copy" fill="#CCCCCC" cx="10" cy="40" r="10"></circle>
                <circle id="Oval-9-Copy-24" fill="#CCCCCC" cx="130" cy="40" r="10"></circle>
                <circle id="Oval-9-Copy-12" fill="#CCCCCC" cx="70" cy="40" r="10"></circle>
                <circle id="Oval-9-Copy-25" fill="#CCCCCC" cx="190" cy="40" r="10"></circle>
                <circle id="Oval-9-Copy-42" fill="#CCCCCC" cx="250" cy="40" r="10"></circle>
                <circle id="Oval-9-Copy-6" fill="#CCCCCC" cx="40" cy="40" r="10"></circle>
                <circle id="Oval-9-Copy-26" fill="#CCCCCC" cx="160" cy="40" r="10"></circle>
                <circle id="Oval-9-Copy-13" fill="#CCCCCC" cx="100" cy="40" r="10"></circle>
                <circle id="Oval-9-Copy-27" fill="#CCCCCC" cx="220" cy="40" r="10"></circle>
                <circle id="Oval-9-Copy-43" fill="#0000FF" cx="280" cy="40" r="10"></circle>
                <circle id="Oval-9-Copy-3" fill="#CCCCCC" cx="10" cy="100" r="10"></circle>
                <circle id="Oval-9-Copy-28" fill="#CCCCCC" cx="130" cy="100" r="10"></circle>
                <circle id="Oval-9-Copy-14" fill="#CCCCCC" cx="70" cy="100" r="10"></circle>
                <circle id="Oval-9-Copy-29" fill="#CCCCCC" cx="190" cy="100" r="10"></circle>
                <circle id="Oval-9-Copy-44" fill="#CCCCCC" cx="250" cy="100" r="10"></circle>
                <circle id="Oval-9-Copy-7" fill="#CCCCCC" cx="40" cy="100" r="10"></circle>
                <circle id="Oval-9-Copy-30" fill="#CCCCCC" cx="160" cy="100" r="10"></circle>
                <circle id="Oval-9-Copy-15" fill="#CCCCCC" cx="100" cy="100" r="10"></circle>
                <circle id="Oval-9-Copy-31" fill="#CCCCCC" cx="220" cy="100" r="10"></circle>
                <circle id="Oval-9-Copy-45" fill="#0000FF" cx="280" cy="100" r="10"></circle>
                <circle id="Oval-9-Copy-2" fill="#CCCCCC" cx="10" cy="70" r="10"></circle>
                <circle id="Oval-9-Copy-32" fill="#CCCCCC" cx="130" cy="70" r="10"></circle>
                <circle id="Oval-9-Copy-16" fill="#CCCCCC" cx="70" cy="70" r="10"></circle>
                <circle id="Oval-9-Copy-33" fill="#CCCCCC" cx="190" cy="70" r="10"></circle>
                <circle id="Oval-9-Copy-46" fill="#CCCCCC" cx="250" cy="70" r="10"></circle>
                <circle id="Oval-9-Copy-8" fill="#CCCCCC" cx="40" cy="70" r="10"></circle>
                <circle id="Oval-9-Copy-34" fill="#CCCCCC" cx="160" cy="70" r="10"></circle>
                <circle id="Oval-9-Copy-17" fill="#CCCCCC" cx="100" cy="70" r="10"></circle>
                <circle id="Oval-9-Copy-35" fill="#CCCCCC" cx="220" cy="70" r="10"></circle>
                <circle id="Oval-9-Copy-47" fill="#0000FF" cx="280" cy="70" r="10"></circle>
                <circle id="Oval-9-Copy-4" fill="#CCCCCC" cx="10" cy="130" r="10"></circle>
                <circle id="Oval-9-Copy-36" fill="#CCCCCC" cx="130" cy="130" r="10"></circle>
                <circle id="Oval-9-Copy-18" fill="#CCCCCC" cx="70" cy="130" r="10"></circle>
                <circle id="Oval-9-Copy-37" fill="#CCCCCC" cx="190" cy="130" r="10"></circle>
                <circle id="Oval-9-Copy-48" fill="#CCCCCC" cx="250" cy="130" r="10"></circle>
                <circle id="Oval-9-Copy-9" fill="#CCCCCC" cx="40" cy="130" r="10"></circle>
                <circle id="Oval-9-Copy-38" fill="#CCCCCC" cx="160" cy="130" r="10"></circle>
                <circle id="Oval-9-Copy-19" fill="#CCCCCC" cx="100" cy="130" r="10"></circle>
                <circle id="Oval-9-Copy-39" fill="#CCCCCC" cx="220" cy="130" r="10"></circle>
                <circle id="Oval-9-Copy-49" fill="#0000FF" cx="280" cy="130" r="10"></circle>
                <path d="M1.5,151.5 L259.50193,151.5" id="Line-11" stroke="#CCCCCC" stroke-width="3" stroke-linecap="round" stroke-linejoin="round"></path>
                <path d="M270,151 L290,151" id="Line-11-Copy-2" stroke="#0000FF" stroke-width="3" stroke-linecap="round" stroke-linejoin="round"></path>
                <path d="M130.5,152.5 L130.5,162.5" id="Line-11-Copy" stroke="#CCCCCC" stroke-width="3" stroke-linecap="round" stroke-linejoin="round"></path>
                <path d="M280.5,152.5 L280.5,162.5" id="Line-11-Copy-3" stroke="#0000FF" stroke-width="3" stroke-linecap="round" stroke-linejoin="round"></path>
                <path d="M110.368,178.36 L107.498,170.842 L107.372,170.842 L107.372,178.36 L106,178.36 L106,168.588 L108.016,168.588 L110.886,176.106 L111.012,176.106 L111.012,168.588 L112.384,168.588 L112.384,178.36 L110.368,178.36 Z M117.592,178.528 C115.464,178.528 114.162,177.058 114.162,174.748 C114.162,172.438 115.464,170.968 117.592,170.968 C119.72,170.968 121.022,172.438 121.022,174.748 C121.022,177.058 119.72,178.528 117.592,178.528 Z M117.592,177.324 C118.698,177.324 119.426,176.638 119.426,175.294 L119.426,174.202 C119.426,172.858 118.698,172.172 117.592,172.172 C116.486,172.172 115.758,172.858 115.758,174.202 L115.758,175.294 C115.758,176.638 116.486,177.324 117.592,177.324 Z M122.856,178.36 L122.856,177.128 L124.774,177.128 L124.774,172.368 L122.856,172.368 L122.856,171.136 L126.3,171.136 L126.3,173.054 L126.384,173.054 C126.664,172.046 127.294,171.136 128.764,171.136 L129.632,171.136 L129.632,172.592 L128.204,172.592 C126.958,172.592 126.3,173.418 126.3,174.426 L126.3,177.128 L128.918,177.128 L128.918,178.36 L122.856,178.36 Z M132.11,178.36 L130.808,178.36 L130.808,171.136 L132.11,171.136 L132.11,172.074 L132.18,172.074 C132.404,171.458 132.782,170.968 133.566,170.968 C134.322,170.968 134.742,171.416 134.854,172.144 L134.91,172.144 C135.162,171.486 135.596,170.968 136.464,170.968 C137.57,170.968 137.962,171.78 137.962,173.278 L137.962,178.36 L136.66,178.36 L136.66,173.474 C136.66,172.48 136.436,172.144 135.89,172.144 C135.4,172.144 135.036,172.466 135.036,173.124 L135.036,178.36 L133.734,178.36 L133.734,173.474 C133.734,172.48 133.524,172.144 132.978,172.144 C132.474,172.144 132.11,172.466 132.11,173.124 L132.11,178.36 Z M146.418,178.36 L145.48,178.36 C144.612,178.36 144.178,177.87 144.094,177.142 L144.024,177.142 C143.744,178.01 142.988,178.528 141.854,178.528 C140.384,178.528 139.432,177.702 139.432,176.344 C139.432,174.944 140.454,174.188 142.596,174.188 L143.982,174.188 L143.982,173.628 C143.982,172.662 143.464,172.158 142.428,172.158 C141.504,172.158 140.958,172.55 140.566,173.152 L139.656,172.41 C140.062,171.626 141.042,170.968 142.568,170.968 C144.388,170.968 145.508,171.878 145.508,173.53 L145.508,177.156 L146.418,177.156 L146.418,178.36 Z M142.288,177.408 C143.268,177.408 143.982,176.918 143.982,176.204 L143.982,175.154 L142.624,175.154 C141.504,175.154 140.972,175.504 140.972,176.148 L140.972,176.428 C140.972,177.072 141.476,177.408 142.288,177.408 Z M148.042,178.36 L148.042,177.128 L150.436,177.128 L150.436,169.232 L148.042,169.232 L148.042,168 L151.962,168 L151.962,177.128 L154.356,177.128 L154.356,178.36 L148.042,178.36 Z" id="Normal" fill="#9B9B9B"></path>
                <path d="M242.57,178.654 C240.876,178.654 239.742,177.996 239,177.016 L240.008,176.05 C240.75,176.932 241.576,177.352 242.626,177.352 C243.858,177.352 244.544,176.764 244.544,175.728 C244.544,174.888 244.11,174.454 242.934,174.258 L241.87,174.09 C240.022,173.782 239.364,172.676 239.364,171.374 C239.364,169.54 240.652,168.546 242.724,168.546 C244.264,168.546 245.356,169.078 246.028,169.96 L245.048,170.94 C244.516,170.282 243.802,169.848 242.724,169.848 C241.576,169.848 240.946,170.352 240.946,171.304 C240.946,172.102 241.366,172.55 242.57,172.746 L243.606,172.928 C245.37,173.25 246.126,174.258 246.126,175.644 C246.126,177.45 244.866,178.654 242.57,178.654 Z M252.552,178.486 L252.552,177.254 L252.482,177.254 C252.174,178.01 251.586,178.654 250.396,178.654 C248.94,178.654 247.96,177.66 247.96,175.91 L247.96,171.262 L249.486,171.262 L249.486,175.686 C249.486,176.834 250.004,177.408 250.984,177.408 C251.768,177.408 252.552,177.002 252.552,176.162 L252.552,171.262 L254.078,171.262 L254.078,178.486 L252.552,178.486 Z M259.468,178.654 C257.914,178.654 256.766,178.108 256.08,177.268 L257.018,176.428 C257.648,177.114 258.418,177.492 259.496,177.492 C260.476,177.492 261.148,177.17 261.148,176.456 C261.148,175.84 260.658,175.672 260.042,175.588 L258.894,175.406 C257.76,175.238 256.486,174.832 256.486,173.348 C256.486,171.878 257.718,171.094 259.566,171.094 C260.91,171.094 261.876,171.514 262.534,172.228 L261.68,173.124 C261.302,172.69 260.644,172.256 259.51,172.256 C258.516,172.256 257.984,172.592 257.984,173.222 C257.984,173.838 258.488,174.006 259.09,174.09 L260.238,174.272 C261.386,174.44 262.646,174.832 262.646,176.316 C262.646,177.772 261.442,178.654 259.468,178.654 Z M264.76,181.286 L264.76,171.262 L266.286,171.262 L266.286,172.494 L266.37,172.494 C266.79,171.626 267.49,171.094 268.554,171.094 C270.248,171.094 271.34,172.396 271.34,174.874 C271.34,177.352 270.248,178.654 268.554,178.654 C267.49,178.654 266.79,178.122 266.37,177.254 L266.286,177.254 L266.286,181.286 L264.76,181.286 Z M267.924,177.408 C269.072,177.408 269.73,176.638 269.73,175.462 L269.73,174.286 C269.73,173.11 269.072,172.34 267.924,172.34 C267.042,172.34 266.286,172.788 266.286,173.67 L266.286,176.078 C266.286,176.96 267.042,177.408 267.924,177.408 Z M276.702,169.946 C275.932,169.946 275.652,169.582 275.652,169.12 L275.652,168.826 C275.652,168.364 275.932,168 276.688,168 C277.458,168 277.738,168.364 277.738,168.826 L277.738,169.12 C277.738,169.582 277.458,169.946 276.702,169.946 Z M273.468,178.486 L273.468,177.254 L275.932,177.254 L275.932,172.494 L273.468,172.494 L273.468,171.262 L277.458,171.262 L277.458,177.254 L279.768,177.254 L279.768,178.486 L273.468,178.486 Z M284.92,178.654 C282.764,178.654 281.49,177.184 281.49,174.874 C281.49,172.564 282.778,171.094 284.906,171.094 C286.39,171.094 287.272,171.794 287.72,172.802 L286.53,173.446 C286.278,172.774 285.746,172.354 284.906,172.354 C283.758,172.354 283.086,173.124 283.086,174.272 L283.086,175.476 C283.086,176.61 283.744,177.394 284.934,177.394 C285.83,177.394 286.376,176.946 286.712,176.246 L287.832,176.932 C287.37,177.94 286.432,178.654 284.92,178.654 Z M293.502,169.946 C292.732,169.946 292.452,169.582 292.452,169.12 L292.452,168.826 C292.452,168.364 292.732,168 293.488,168 C294.258,168 294.538,168.364 294.538,168.826 L294.538,169.12 C294.538,169.582 294.258,169.946 293.502,169.946 Z M290.268,178.486 L290.268,177.254 L292.732,177.254 L292.732,172.494 L290.268,172.494 L290.268,171.262 L294.258,171.262 L294.258,177.254 L296.568,177.254 L296.568,178.486 L290.268,178.486 Z M301.454,178.654 C299.326,178.654 298.024,177.184 298.024,174.874 C298.024,172.564 299.326,171.094 301.454,171.094 C303.582,171.094 304.884,172.564 304.884,174.874 C304.884,177.184 303.582,178.654 301.454,178.654 Z M301.454,177.45 C302.56,177.45 303.288,176.764 303.288,175.42 L303.288,174.328 C303.288,172.984 302.56,172.298 301.454,172.298 C300.348,172.298 299.62,172.984 299.62,174.328 L299.62,175.42 C299.62,176.764 300.348,177.45 301.454,177.45 Z M311.352,178.486 L311.352,177.254 L311.282,177.254 C310.974,178.01 310.386,178.654 309.196,178.654 C307.74,178.654 306.76,177.66 306.76,175.91 L306.76,171.262 L308.286,171.262 L308.286,175.686 C308.286,176.834 308.804,177.408 309.784,177.408 C310.568,177.408 311.352,177.002 311.352,176.162 L311.352,171.262 L312.878,171.262 L312.878,178.486 L311.352,178.486 Z M318.268,178.654 C316.714,178.654 315.566,178.108 314.88,177.268 L315.818,176.428 C316.448,177.114 317.218,177.492 318.296,177.492 C319.276,177.492 319.948,177.17 319.948,176.456 C319.948,175.84 319.458,175.672 318.842,175.588 L317.694,175.406 C316.56,175.238 315.286,174.832 315.286,173.348 C315.286,171.878 316.518,171.094 318.366,171.094 C319.71,171.094 320.676,171.514 321.334,172.228 L320.48,173.124 C320.102,172.69 319.444,172.256 318.31,172.256 C317.316,172.256 316.784,172.592 316.784,173.222 C316.784,173.838 317.288,174.006 317.89,174.09 L319.038,174.272 C320.186,174.44 321.446,174.832 321.446,176.316 C321.446,177.772 320.242,178.654 318.268,178.654 Z" id="Suspicious" fill="#0000FF"></path>
            </g>
        </g>
    </g>
</svg>
